dist/assets/img/instruction/01.svg

<svg width="84" height="70" viewBox="0 0 84 70" fill="none" xmlns="http://www.w3.org/2000/svg">
<path opacity="0.05" d="M23.3383 0.846872C28.118 0.846872 32.2297 2.01953 35.6734 4.36484C39.1469 6.71015 41.8188 10.3023 43.6891 15.1414C45.5891 19.9508 46.5391 26.6602 46.5391 35.2695C46.5391 43.968 45.5742 50.7367 43.6445 55.5758C41.7445 60.4148 39.1766 63.9773 35.9406 66.2633C32.7047 68.5195 28.6227 69.6477 23.6945 69.6477C18.7664 69.6477 14.625 68.5047 11.2703 66.2187C7.91563 63.9328 5.28828 60.4594 3.38828 55.7984C1.48828 51.1375 0.538281 44.5023 0.538281 35.893C0.538281 23.8695 2.39375 15.1562 6.10469 9.75312C10.2313 3.81562 15.9758 0.846872 23.3383 0.846872ZM23.65 12.6922C21.5422 12.6922 19.6719 13.375 18.0391 14.7406C16.4063 16.0766 15.1594 18.3922 14.2984 21.6875C13.4375 24.9828 13.007 29.807 13.007 36.1602C13.007 44.443 13.9867 50.1727 15.9461 53.3492C17.9352 56.4961 20.5031 58.0695 23.65 58.0695C26.6781 58.0695 29.0828 56.5703 30.8641 53.5719C33.0313 49.95 34.1148 43.8937 34.1148 35.4031C34.1148 26.7937 33.1352 20.8562 31.1758 17.5906C29.2461 14.325 26.7375 12.6922 23.65 12.6922ZM65.0409 2.49453H83.6995V68H71.3198V14.2062H57.8268L65.0409 2.49453Z" fill="#525252"/>
</svg>

<svg width="84" height="70" fill="none" xmlns="http://www.w3.org/2000/svg"><path opacity=".05" d="M23.338.847c4.78 0 8.892 1.173 12.335 3.518 3.474 2.345 6.146 5.937 8.016 10.776 1.9 4.81 2.85 11.52 2.85 20.129 0 8.698-.965 15.467-2.895 20.306-1.9 4.839-4.467 8.401-7.703 10.687-3.236 2.256-7.318 3.385-12.247 3.385-4.928 0-9.069-1.143-12.424-3.43-3.354-2.285-5.982-5.759-7.882-10.42-1.9-4.66-2.85-11.296-2.85-19.905 0-12.024 1.856-20.737 5.567-26.14C10.23 3.816 15.975.847 23.338.847zm.312 11.845c-2.108 0-3.978.683-5.61 2.049-1.634 1.336-2.88 3.651-3.742 6.947-.86 3.295-1.291 8.119-1.291 14.472 0 8.283.98 14.013 2.94 17.19 1.988 3.146 4.556 4.72 7.703 4.72 3.028 0 5.433-1.5 7.214-4.498 2.167-3.622 3.25-9.678 3.25-18.169 0-8.61-.979-14.547-2.938-17.812-1.93-3.266-4.438-4.899-7.526-4.899zM65.04 2.495H83.7V68H71.32V14.206H57.827L65.04 2.495z" fill="#525252"/></svg>
